src/assets/illustrations/scribble.svg

<svg width="40" height="40" viewBox="0 0 40 40" fill="none" xmlns="http://www.w3.org/2000/svg">
<path d="M16.6326 19.1143C16.6326 20.5845 17.5455 20.6175 18.9895 20.48C21.5668 20.2345 19.6572 18.2955 18.615 17.5283C17.1816 16.4731 15.1873 15.887 14.0663 17.6384C13.1579 19.0578 13.1911 20.9751 14.6501 21.9338C16.4239 23.0995 21.2553 25.109 22.6681 22.4294C24.3104 19.3148 23.5634 13.749 20.4433 11.6689C17.1921 9.50146 13.2471 13.3458 11.6763 15.8982C10.0285 18.576 8.61973 21.5716 7.57921 24.5331C7.25283 25.462 6.69463 27.1553 7.62326 27.9474C9.16648 29.2636 11.8096 29.6569 13.7469 29.8197C18.1843 30.1926 23.2842 30.7587 27.4922 28.9826C32.4495 26.8903 37.8488 19.9795 33.3515 14.907C32.1141 13.5114 30.3954 12.7312 28.6816 12.0875C25.5664 10.9174 22.2754 10.0741 18.9454 9.88471C14.3752 9.6248 10.1046 9.65313 7.02852 13.4312C5.48975 15.3211 4.90966 17.7818 4.96893 20.1826C5.04554 23.2852 6.96034 24.7717 9.75994 25.7115C13.268 26.8893 17.0331 27.0216 20.5535 25.7886C22.7757 25.0104 22.9455 22.7884 22.8443 20.7003C22.7438 18.6266 22.4576 16.5442 20.3001 15.7771C19.663 15.5505 17.6084 15.5458 18.2846 15.5458C20.8064 15.5458 23.2766 15.9645 25.796 15.5018C26.6896 15.3376 27.4153 15.1493 28.3292 15.1493" stroke="#544339" stroke-width="1.26562" stroke-linecap="round"/>
</svg>

<svg width="40" height="40" fill="none" xmlns="http://www.w3.org/2000/svg"><path d="M16.633 19.114c0 1.47.913 1.503 2.357 1.366 2.577-.245.667-2.184-.375-2.952-1.433-1.055-3.428-1.641-4.549.11-.908 1.42-.875 3.337.584 4.296 1.774 1.165 6.605 3.175 8.018.495 1.642-3.114.895-8.68-2.225-10.76-3.25-2.168-7.196 1.677-8.767 4.23a45.554 45.554 0 0 0-4.097 8.634c-.326.929-.884 2.622.044 3.414 1.543 1.317 4.187 1.71 6.124 1.873 4.437.373 9.537.939 13.745-.837 4.957-2.093 10.357-9.003 5.86-14.076-1.238-1.396-2.957-2.176-4.67-2.82-3.116-1.17-6.407-2.013-9.737-2.202-4.57-.26-8.84-.232-11.916 3.546-1.54 1.89-2.12 4.35-2.06 6.752.077 3.102 1.991 4.589 4.79 5.529 3.509 1.177 7.274 1.31 10.794.077 2.223-.779 2.392-3 2.291-5.089-.1-2.073-.386-4.156-2.544-4.923-.637-.226-2.692-.231-2.015-.231 2.521 0 4.992.418 7.511-.044.894-.164 1.62-.353 2.533-.353" stroke="#544339" stroke-width="1.266" stroke-linecap="round"/></svg>
